assets/gcpsecuritycommandcenter/original.svg

<svg height="24" width="24" xmlns="http://www.w3.org/2000/svg"><path d="m13.31 6.85a5.23 5.23 0 0 1 3.75 3.75h3.53v-5.36l-7.28-3.24zm-6.38 3.76a5.22 5.22 0 0 1 3.75-3.75v-4.86l-7.27 3.24v5.37zm3.76 6.39a5.23 5.23 0 0 1 -3.75-3.75h-3.31a12 12 0 0 0 7.06 8.75zm6.38-3.75a5.23 5.23 0 0 1 -3.75 3.75v5a12 12 0 0 0 7.05-8.75z" fill="#4285f4"/><circle cx="12" cy="11.92" fill="#669df6" r="2.63"/></svg>

<svg xmlns="http://www.w3.org/2000/svg" width="24" height="24"><g data-name="Product Icons"><path d="M13.31 6.85a5.23 5.23 0 0 1 3.75 3.75h3.53V5.24L13.31 2Zm-6.38 3.76a5.22 5.22 0 0 1 3.75-3.75V2L3.41 5.24v5.37ZM10.69 17a5.23 5.23 0 0 1-3.75-3.75H3.63A12 12 0 0 0 10.69 22Zm6.38-3.75A5.23 5.23 0 0 1 13.32 17v5a12 12 0 0 0 7.05-8.75Z" fill="#4285f4"/><circle id="Oval" cx="12" cy="11.92" r="2.63" fill="#669df6"/></g></svg>
